X:1
T:Lillie of the Snow-Storm
M:4/4
L:1/8
K:Ab
 C3/2 D/2| E3 FE AA c| B4 A2 F3/2 G/2| A3 EE cd c| B6| C3/2 D/2| E3 FE AA c|\
 B4 A2 F3/2 G/2| A3 EE BB c| A6| A3/2 B/2| c3 dc FF A| G4 G2 A3/2 B/2|\
 c3 dc FF A| B6| C3/2 D/2| E3 FE AA c| B4 A2 F3/2 G/2| A3 EE BB c|\
 A6| c3/2 d/2| e3 cf ec A| B3- c d2 c3/2 B/2| A3 FF BB A| G6| C3/2 D/2|\
 E3 FE AA c| B4 A2 F3/2 G/2| A3 EE BB c| A6||
